X:1
T:PAVANE
T:PAVA N E
T:P O U R  U N E  I N FAN T E  D É F U N T E
T:Maurice  Ravel
C:Maurice Ravel
%%score { ( 1 2 4 6 ) | ( 3 5 7 ) }
L:1/8
Q:1/4=54
M:4/4
K:G
V:1 treble nm="Piano" snm="Pno."
V:2 treble 
V:4 treble 
V:6 treble 
V:3 bass 
V:5 bass 
V:7 bass 
V:1
"^à   M a d a m e   l a   P r i n c e s s e   E.   d e   P O L I G N A C"!p!"^Assez doux, mais d’ une sonorité large" (G4- GAFE | %1
 D2 EF FE[Q:1/4=54]"^54" E2) |[Q:1/4=57]"^57" (B4- BcAG | (F2) GA- ABGF | E2 FG- GAFE | %5
 F4) z[Q:1/4=53]"^Cédez" (!tenuto![CEA]!mf!!tenuto![B,DF]!tenuto![F,CE] | %6
!tenuto!F) z!>(! B4[Q:1/4=40]"^40" B2[Q:1/4=35][Q:1/4=45][Q:1/4=55]!>)! | %7
!p![Q:1/4=57]"^En mesure" (B4- BAdB | !tenuto!B2 !tenuto!A2 !tenuto!G2 !tenuto!A2 | %9
 E4)[Q:1/4=53]"^un peu retenu"!pp! z (.[cd]z.[cd] | %10
.[Be])!f! z[Q:1/4=47]"^En élargissant" (!tenuto!B2 !tenuto![DF]2 !tenuto!E2 | %11
 !tenuto![B,F]4)[Q:1/4=54]"^1er Mouvṭ"!p![I:staff +1] (.[F,B,].[B,D][I:staff -1].[DF].[FB]) || %12
!pp![Q:1/4=57]"^Très lointain" f2 g2- g"_m.g."[Bdf][Bdg][Bda] | d2 ^c2- c4 | %14
 (d2 e2- e[GBd][GBe][GBf] | B2 A2 F4) | (A2 B2-!<(! B[DFA][DFB][DF^c]!<)! | %17
 !tenuto![G,DF]2 !tenuto![G,B,E]3) (!tenuto![F,A,D]!tenuto![G,B,E]!tenuto![G,DF] || %18
[M:2/4]!>(! !tenuto![G,B,E]2 !tenuto![F,A,D]2)!>)! ||[M:4/4]!ppp! f2 g2- g[Bdf][Bdg][Bda] | %20
 d2 ^c2- c4 |!<(! (d2 e2- e[GBd][GBe][GBf]!<)! |!>(! B2 A2!>)! F4) | %23
!<(! (A2 B2- B[DFA][DFB][DF^c]!<)! | %24
 !tenuto![^G,^CDF]2!mf! !tenuto![=G,B,CE]3) (!tenuto![F,B,D]!tenuto![G,B,CE]!tenuto![^G,CDF] | %25
!>(! ([!courtesy!=G,B,^CE]2 [F,A,D]))!>)! z[Q:1/4=54]"^un  peu  plus  lent" (!>![^G,DF]2!f! !>![F,=CE]2- | %26
 [F,CE]!>![E,_B,D]!>![F,CE]!>![^G,DF]!>(! ([B,E]2 !fermata![F,A,CD]2))!>)! || %27
[Q:1/4=57]"^Reprenez  le  mouvement"!p! (g4- gafe | d2 ef fe e2) | (b4- bc'a[Gg] | %30
 [Ff]2 [Gg][Aa-] abgf | [Ee]2 [Ff][Gg-] gafe | %32
 f4) !>![EAc][Q:1/4=53]"^Cédez"!mf! (!tenuto![CEA]!tenuto![B,DF]!tenuto![F,CE] | %33
!tenuto![B,DF]) z!>(! [Bb]4[Q:1/4=40]"^rapide" [Bb]2[Q:1/4=30]!>)![Q:1/4=35]"_35"[Q:1/4=40]"_40"[Q:1/4=45]"_45" | %34
[Q:1/4=55]"^En mesure" ([Bb]4- [Bb][Aa][dd'][Bb] | %35
 !tenuto![Bb]2 !tenuto![Aa]2 !tenuto![Gg]2 !tenuto![Aa]2 | %36
 !tenuto![Ee]4-!pp![Q:1/4=53]"^un  peu  plus  lent" [Ee]!tenuto!.[Dd]!tenuto!.[Gg]!tenuto!.[Ff] | %37
 !tenuto!.[Ee]2)[Q:1/4=50]"^Large" !>!B2 !>![^G,Dd]2 (3!>!c!>!B!>!A | [B,B]4- [B,B]4[Q:1/4=50] || %39
[Q:1/4=54]"^1er Mouvement""_très  doux  et  très  lié" x8[Q:1/4=56] | %40
 x x x z (.[A,C=F].[CFA].[A,CF].[=F,A,D] | %41
!<(! (3.[A,C=F].[CFA].[FAd])!<)![Q:1/4=57]"^57" !>![FAe]2- [FAe] !tenuto!.[A,CF]!<(!!tenuto!.[CFA]!tenuto!.[FAd]!<)! | %42
 !>![=FAe]2- [FAe]!>(! ([FAe]!>)!!>(! c4)!>)! | x8[Q:1/4=58] | %44
 x x x z !tenuto!.[D=F_B]!tenuto!.[FAd]!tenuto!.[DFB]!tenuto!.[B,DG] | %45
!<(! (3[D=F_B][FAd][Ad=f]!<)!!f!!<(! !^![Bda]2- [Bda]!<)!!ff! !>![B,DFB]!<(!!>![DFAd]!>![FAdf]!<)! | %46
[Q:1/4=56]"^56" [A_Bda]2- [ABda] ([Aea]!>(! [=Fc=f]2) z [_E=B_e] | %47
[Q:1/4=55]"^55" [CGc]2 z!>)![Q:1/4=50]"^Très grave" ([_B,^F_B]!p! G2) !tenuto!=E2 || %48
[M:2/4]!>(! !tenuto![CDF]2[Q:1/4=40]"^40" !tenuto![_B,DG]2[Q:1/4=54]!>)! || %49
[M:4/4]!pp! x4[Q:1/4=55]"^55"[I:staff +1] (d/4[Q:1/4=60]"^60"[I:staff -1]g/4[Q:1/4=70]"^70"!>(!_b/4=f'/4[Q:1/4=55]"^55" x2) x | %50
 z2!>)![Q:1/4=32]"^30"[I:staff +1] (6:4:6(D/4[Q:1/4=40]"^40"A/4[Q:1/4=50]"^50"d/4[Q:1/4=60]"^60"[I:staff -1]=f/4a/4d'/4[Q:1/4=40]"^40"a'/4) x/4[Q:1/4=57]"^57" x/ (.[A,C=F].[CFA].[A,CF].[=F,A,D] | %51
!<(! (3[A,C=F][CFA][FAd]!<)! [FAe]2-) [FAe]!<(! (!tenuto!.[A,CF]!tenuto!.[CFA]!tenuto!.[FAd]!<)! | %52
!>(! !>![=FAe]2-)!>)! [FAe] ([FAe] c4) | %53
!p! x4[Q:1/4=55]"^55"[I:staff +1] (5:2:5G/[Q:1/4=60]"^60"B/[Q:1/4=65]"^65"[I:staff -1]c/-_e/-_b/[Q:1/4=59]"^59" x x2 | %54
 x [Ac_e][I:staff +1] (6:4:6(G,/4D/4G/4[I:staff -1]_B/4d/4g/4d') ([D=FB][FAd][DFB][B,DG] | %55
[Q:1/4=58]"^58"!<(! (3!tenuto![D=F_B]!tenuto![FAd][Q:1/4=57]"^57"!tenuto![Ad=f]!<)! !>![Bda]2-!ff! [Bda])[Q:1/4=55]"^55"!<(! (!>![B,DFB]!>![DFAd]!>![FAdf]!<)! | %56
[Q:1/4=57]"^57" !>![A_Bda]2- [ABda]!>(! ([Aea][Q:1/4=56]"^56" [=Fc=f]3)!>)!!>(! ([_E=B_e] | %57
[Q:1/4=55]"^55" [CGc]3)!>)!!>(! ([_B,^F_B]!>)![Q:1/4=53]"^53" !tenuto![G,G]2))!p![Q:1/4=50]"^Très grave" !tenuto!=E2 || %58
[M:2/4] [CD^F]2 !tenuto!!fermata![_B,DG]2 || %59
[M:4/4]"^marquez le chant"[Q:1/4=57]"^1er Mouvement" (g4- gafe | d2 effe e2 | (b4-) bc'ag | %62
 [Ff]2 [Gg][Aa-] abgf | [Ee]2 [Ff][Gg-] gafe | %64
 f4) x[Q:1/4=50]"^Cédez" !tenuto!A!tenuto!F!tenuto!E | %65
 !tenuto![B,DF] z!>(! ([Bb]4 [Bb]2[Q:1/4=45]!>)! | %66
[Q:1/4=54]"^Reprenez  le  mouvement"!pp! [Bb]4- [Bb][Aa][dd'][Bb] | %67
 !tenuto![Bb]2 !tenuto![Aa]2 !tenuto![Gg]2 !tenuto![Aa]2 | %68
 !tenuto![Ee]4-!pp! [Ee]!tenuto!.[Dd]!tenuto!.[Gg]!tenuto!.[Ff] | %69
 !tenuto!.[Ee]2)[Q:1/4=50] !>!B2[Q:1/4=45]"^45""^m.g." !arpeggio![^G,Ddb]2 [ead']2 | %70
[I:staff +1] [G,,,G,,]-(6:4:6F,/4-B,/4-F/4-[I:staff -1]B/4-f/4-b/4-"^m.g."!ff! [Bfb]4- [Bfb]4[Q:1/4=45] | %71
 !fermata![dgd']4 z4 |] %72
V:2
 .B,.D.B,.D .B,.E.B,.E | .F,.B,.F,.B, .G,.B,G,B, | CECE CECE | CDCD B,DB,D | B,CB,C A,CA,C | %5
 F,B,DB, z x x x | B,D z2 z4 | z .E.G.E CEGE | C[F,E]AE CEAE | %9
 z .B,.E.B (!tenuto!.E!tenuto!.DG!tenuto!.F | %10
!tenuto!.E)[I:staff +1] !tenuto!B,[I:staff -1]!tenuto!D!tenuto!E x2 (3!tenuto!C!tenuto!B,!tenuto!A, | %11
 x4 z4 || (.[ABd].[ABd].[GBd].[GBd] .[GBd]) (AGF | %13
 (.[EGB]).[EGB].[EGB].[EGB] .[EGB])"_m.g." [GB][GB][GB] | (.[FGB].[FGB].[EGB].[EGB] .[EGB]) (FED) | %15
 .[^CEG].[CEG].[CEG].[CEG] (.[CDF].[CDF].[CDF].[CDF]) | %16
 (.[^CDF].[CDF].[B,DF].[B,DF]) (.[B,DF] .C.B,.A,) | x8 ||[M:2/4] x4 || %19
[M:4/4] (.[ABd].[ABd].[GBd].[GBd] .[GBd]) (AGF | (.[EGB]).[EGB].[EGB].[EGB] .[EGB]) [GB][GB][GB] | %21
 (.[FGB].[FGB].[EGB].[EGB] .[EGB]) (FED | (.[^CEG]).[CEG].[CEG].[CEG]) (.[CDF].[CDF].[CDF].[CDF]) | %23
 (.[^CDF]!<(!.[CDF].[B,DF].[B,DF] .[B,DF]) CB,A,!<)! | x8 | x8 | x4 ([=F,=G,][^F,-^G,] x2) || %27
 .[DB].d.[DB].d .[EB].e.[EB].e | [B,F]Bzd [EB]BEB | [Bc]e[Bc]e [Bc]e[GA]e | F[Bd]Gd [FB]dGd | %31
 Bc z c [EA]cEc | [FB]d[DB]d x x x x | x8 | %34
 z (.[ce][I:staff +1].[CE][I:staff -1].[ce]) x [eg] z [ce] | z [F,CE]- [F,CE]2 x3 [ce]- | %36
[ce] [Be]2 [Be]2 c2 [cd] | %37
[Be]!ff![I:staff +1] !tenuto!B,[I:staff -1]!tenuto!D!tenuto!E!tenuto!F x [F,CE]2 | %38
 !>!F4 !>!E2 !>!D2 || x8 | x8 | x8 | x5 [=FG][I:staff +1][=fg]!pp!!<(![I:staff -1][EG] | %43
 x4!<)! x4 | x8 | x8 | x2 x c_BA_AG | =FE_ED [CD]4 ||[M:2/4] x4 ||[M:4/4] x8 | x8 | x8 | %52
 x4 x (.[=FG][I:staff +1].[=fg][I:staff -1].[EG]) | x8 | x8 | x8 | x2 x c_BA_AG |=FE_ED [CD]4 || %58
[M:2/4] x4 ||[M:4/4] .D/.B/.d/.B/.D/.B/.d/.B/.E/.B/.e/.B/.E/.B/.e/.B/ | %60
 .B,/.F/.B/.F/z/.F/.B/.F/.E/.B/.e/.B/.E/.B/.e/.B/ | %61
 .B/.c/.e/.c/.B/.c/.e/.c/.B/.c/.e/.c/.[GA]/.c/.e/.c/ | %62
 .F/.B/.d/.B/G/.B/.d/.B/.F/.B/.d/.B/.G/.B/.d/.B/ | %63
 .E/.B/.c/.B/.F/.B/.c/.B/.E/.A/.c/.A/.F/.A/.c/.A/ | %64
 .F/.B/.d/.B/.D/.B/.d/.B/.[Ac]/.E/ .E/.C/.D/.B,/.C/.A,/ | x8 | %66
 z [ce][I:staff +1][CE][I:staff -1][ce] x [eg] x [ce] | z !tenuto!.[F,CE]- [F,CE]2 x3 [ce]- | %68
 [ce] [Be]2 [Be]2 c2 [cd] | %69
[Be]!f!"^En élargissant beaucoup"!<(! !>!B,!>!D!>!E!>!F x (3!>!c!>!B!>!A | x2!<)! d'4- d'4 | x8 |] %72
V:3
 z2 (.G,,z.C,,z.E, z | !tenuto!.D,,z!tenuto!.B,,zE,,zD,) z | %2
 z2 (!tenuto!.G,z!tenuto!.A,,z!tenuto!.G, z |!tenuto!.D,z.Cz.G,,z.F, z | .C,z.B,z.F,,z.E, z | %5
.B,,) z z2 (F,,2 G,,A,, |!ped! D,4-) [B,,,D,]4!ped-up! | A,,,8 | z [D,,A,,]- [D,,A,,]2- [D,,A,,]4 | %9
 G,2 z2 (!tenuto!.[E,,E,]!tenuto!.[D,,D,]!tenuto!.[G,,G,]!tenuto!.[F,,F,] | %10
 !tenuto!.[E,,E,]2) z2 ^G,2 F,2 | F,4 x4 ||!ped! !tenuto!.[B,,,B,,]4 !tenuto!.[B,,,B,,]4!ped-up! | %13
!ped! !tenuto!.[B,,,B,,]8!ped-up! |!ped! !tenuto!.[B,,,B,,]4 !tenuto!.[B,,,B,,]4!ped-up! | %15
!ped! [B,,,B,,]8!ped-up! |!ped! !tenuto!.A,,,4!<(! !tenuto!.A,,,4!ped-up!!<)! | %17
!mf! !tenuto![E,,B,,]2"^très soutenu" !tenuto![A,,E,]3 !tenuto![D,A,]!tenuto![A,,E,]!tenuto![E,,B,,] || %18
[M:2/4] !tenuto![A,,E,]2 !tenuto![D,A,]2 ||[M:4/4]!ped! [B,,,B,,]8!ped-up! | %20
!ped! [E,,E,]8!ped-up! |!ped! [G,,A,]8!ped-up! |!ped! z2 [A,,,A,,]2!ped-up!!ped! [D,,D,]4!ped-up! | %23
!pp!!ped! [G,,,G,,]6 [B,,,B,,]2!ped-up! | [E,,B,,]2 [A,,E,]3 [D,A,][A,,E,][E,,B,,] | %25
 ([A,,E,]2 [D,A,]) z !>![E,,B,,]2 !>![D,,A,,]2- | %26
 [D,,A,,]!>![C,,G,,]!>![D,,A,,]!>![E,,B,,]!>(! ([G,,D,]2 !fermata![D,,A,,]2)!>)! || %27
!ped! !>![G,,D,B,]2 z2!ped-up!!ped! !arpeggio!!>![C,,G,,E,]2 z2!ped-up! | %28
!ped! !arpeggio!!>![D,,B,,F,]2 z2!ped-up!!ped! !arpeggio!!>![E,,B,,G,]2 z2!ped-up! | %29
!ped! !arpeggio!!>![C,G,E]2[K:treble] [Ec]2!ped-up![K:bass]!ped! !arpeggio!!>![A,,E,C]2[K:treble] [Ec]2!ped-up! | %30
[K:bass]!ped! !arpeggio!!>![B,,F,D]2[K:treble] [DFB]2!ped-up![K:bass]!ped! !arpeggio!!>![G,,D,B,]2[K:treble] [DFB]2!ped-up! | %31
[K:bass][K:bass]!ped! !arpeggio!!>![A,,E,C]2[K:treble] !arpeggio![CEA]2!ped-up![K:bass]!ped! !arpeggio!!>![F,,C,A,]2[K:treble] !arpeggio![CEA]2!ped-up! | %32
[K:bass]!ped! !arpeggio!!>![B,,F,D]2 [B,F]2!ped-up! z4 | x2 x2 x2!ped! !>!B,2-!ped-up! | %34
!p!!ped! !tenuto![A,,E,B,]4!ped-up!!ped! B,A,DB,!ped-up! |!ped! x [D,,A,,]- [D,,A,,]2 x4!ped-up! | %36
!ped! x4 !tenuto!.[E,,E,]!tenuto!.[D,,D,]!tenuto!.[G,,G,][F,,F,]!ped-up! | %37
!ped! !tenuto!.[E,,E,]2 z2 [E,,B,,]2 [D,,A,,]2!ped-up! | %38
!ped! [F,,B,,-F,]4 !>![E,,E,]2 !>![D,,D,]2!ped-up! ||[K:treble] z4 !tenuto!.d2 !tenuto!.d2 | %40
 (3cGc[K:bass] z !tenuto!G,2 !tenuto![G,D]2 !tenuto![G,D-] | %41
[G,D] [G,C]2 !>![D,B,]2-!ped! [D,B,] (3z !tenuto!.[G,D]!tenuto!.[G,C]!ped-up! | %42
 [D,B,]2- [D,B,] ([G,B,] [C,G,]2)[K:treble] x2 | (_Edc_BGBAG | %44
[K:bass](3=FCF G,2)!ped! !tenuto!._B,!tenuto!.D!tenuto!.B,!tenuto!.G,!ped-up! | %45
 (3_B,D[B,=F] !^![G,E]2- [G,E] !>![D,G,]!>![=F,B,]!>![A,B,D] | %46
 !^![G,_B,E]2- [G,B,E] ([B,E] [=F,C]2) x ([F,=B,] | [C,G,]2) x [C,^F,] G,2 =E,2 || %48
[M:2/4] F,2 G,2 ||[M:4/4] z2 z2[K:treble] (d2 d2 | %50
 (3cGc D)[K:bass] !tenuto![G,D]2 !tenuto![G,D]2 ([G,D-] | %51
 [G,D] [G,C] !>![D,B,]2-) [D,B,] z (!tenuto!.[G,D]!tenuto!.[G,C] | %52
 !>![D,B,]2-) [D,B,] ([G,B,] [C,G,]2)[K:treble] x x | (_Edc_B G2) A z | %54
[K:bass](3=FCF G,2 (!tenuto!_B,!tenuto!D!tenuto!B,!tenuto!G, | %55
 (3!tenuto!_B,!tenuto!D!tenuto![B,=F] [G,E]2-) [G,E] (!>![D,G,]!>![=F,B,]!>![A,B,D]) | %56
 !>![G,_B,E]2- [G,B,E]!>(! ([B,E]!>)! [=F,_C]2) x [F,=B,] | [C,G,]3!>(! [C,^F,]!>)! G,2 =E,2 || %58
[M:2/4] F,2 G,2 || %59
[M:4/4]!ped! !arpeggio![G,,D,B,]2 z2!ped-up!!ped! !arpeggio![C,,G,,E,]2 z2!ped-up! | %60
!ped! !arpeggio![D,,B,,F,]2 z2!ped-up!!ped! !arpeggio![E,,B,,G,]2 z2!ped-up! | %61
!ped! !arpeggio![C,G,E]2[K:treble] [Ec]2!ped-up![K:bass]!ped! !arpeggio![A,,E,C]2[K:treble] [Ec]2!ped-up! | %62
[K:bass]!ped! !arpeggio![B,,F,D]2[K:treble] [DFB]2!ped-up![K:bass]!ped! !arpeggio![G,,D,B,]2[K:treble] [DFB]2!ped-up! | %63
[K:bass]!ped! !arpeggio![A,,E,C]2[K:treble] !arpeggio![CEA]2!ped-up![K:bass]!ped! !arpeggio![F,,C,A,]2[K:treble] !arpeggio![CEA]2!ped-up! | %64
[K:bass]!ped! !arpeggio![B,,F,D]2 [B,F]2!ped-up!!ped! z4!ped-up! | %65
!ped! B,,4- [B,,,B,,]2!ped-up!!ped! !>!B,2-!ped-up! | %66
!ped! !tenuto![A,,E,B,]4!ped-up!!ped! B,A,DB,!ped-up! | %67
!ped! z !tenuto!.[D,,A,,]- [D,,A,,]2 x4!ped-up! | %68
!ped! x4 !tenuto!.[E,,E,]!tenuto!.[D,,D,]!tenuto!.[G,,G,][F,,F,]!ped-up! | %69
 !tenuto!.[E,,E,]2 x2!ped! !arpeggio![E,,B,,F,]2!ped!{/[D,,A,,]-} [D,,A,,F,E]2!ped-up! | %70
!ped! x2 [G,,,G,,]4-!ped-up! [G,,,G,,B,]4 |{/[G,,,G,,]-} [G,,,G,,]4 z4 |] %72
V:4
 x8 | x8 | x8 | x8 | x8 | x8 | x2 x2 x2 x"^35" (5:4:5[B,C]/4"^45"E/4"^55"G/4B/4-e/4 | x8 | x8 | %9
 x8 | x8 | x8 || x8 | x8 | x8 | x8 | x8 | x8 ||[M:2/4] x4 ||[M:4/4] x8 | x8 | x8 | x8 | x8 | x8 | %25
 x8 | x8 || x8 | x8 | x8 | x8 | x8 | x8 | %33
 x2 x2 x2 x"_30"[I:staff +1] (7:4:7B,/4[I:staff -1]C/4E/4B/4c/4e/4b/4- | x8 | x8 | x8 | x8 | %38
 x7 (g || _bc'd'=f'-"^56" f'2 e'd' |e'c'd') x5 | x8 | x7 (c | _efg_b-"^58" b2 ag |a=fg) x5 | x8 | %46
 x8 | x8 ||[M:2/4] x3 (g ||[M:4/4]_bc'd'=f'- f'2 e'd' |e'c'd') z x4 | x8 | x7 (c | %53
_e=fg_b- b2 a[Gg] |[c_ea]=f g2) x4 | x8 | x8 | x8 ||[M:2/4] x4 ||[M:4/4] x8 | x8 | x8 | x8 | x8 | %64
 x8 | x6 x"^45"[I:staff +1] (7:4:7B,/4[I:staff -1]C/4E/4B/4c/4e/4b/4- | x8 | x8 | x8 | x8 | x10 | %71
 x8 |] %72
V:5
 x8 | x8 | x8 | x8 | x8 | x8 | x8 | z2 !>!B,2- B,A,DB, | B,2 F,2 B,2 A,2 | z4 x2 x2 | %10
 x2 x2 !tenuto![E,,B,,]2 !tenuto![D,,A,,]2 | !tenuto![B,,,F,,D,]4 z4 || x8 | x8 | x8 | x8 | x8 | %17
 x8 ||[M:2/4] x4 ||[M:4/4] x8 | x8 | x8 | x8 | x8 | x8 | x8 | x8 || x2 [B,B]2 z2 [B,B]2 | %28
 z2 [B,F]2 z2 [B,G]2 | x2[K:treble] x2[K:bass] x2[K:treble] x2 | %30
[K:bass] x2[K:treble] x2[K:bass] x2[K:treble] x2 | %31
[K:bass][K:bass] x2[K:treble] x2[K:bass] x2[K:treble] x2 | %32
[K:bass] x2 z2 (!tenuto!F,,2 !tenuto!B,,!tenuto!D, | !tenuto!B,,4-) [B,,,B,,]4 | x5 [EG]z[EG] | %35
 B,2 F,2 B,2 A,2 | G,4 x C,2 [C,D,] |[B,,E,] x7 |{/[G,,,G,,]-} [G,,,G,,]4- [G,,,G,,B,,]4 || %39
[K:treble] x8 | x2[K:bass] D2- D x3 | x3 z !tenuto!.G,,- G,,2 x | z (G,,G,,) x3[K:treble] x2 | x8 | %44
[K:bass] x2 z !tenuto![C,,G,,]- [C,,G,,]3 [C,,G,,]- | [C,,G,,]2 z !tenuto!.[C,,G,,]- [C,,G,,]4 | %46
 z !tenuto!.[C,,G,,]2 C_B,A,_A,G, | =F,E,_E,D, !tenuto![D,,D,]4- ||[M:2/4] [D,,D,]2 [G,,,G,,]2 || %49
[M:4/4] x4[K:treble] x g'z[=f'g'] | x3[K:bass] x5 | x2 z G,,- G,,2 x2 | %52
 z (!tenuto!.G,,G,,) x x4[K:treble] | x4 x c'2 [_bc'] | %54
[K:bass] x z z !tenuto!.[C,,G,,]- [C,,G,,]3 [C,,G,,]- | [C,,G,,]2 z !>![C,,G,,]- [C,,G,,]4 | %56
 z !>![C,,G,,]2 C_B,A,_A,G, |=F,E,_E,D, !tenuto![D,,D,]4- || %58
[M:2/4] [D,,D,]2 !tenuto!!fermata![G,,,G,,]2 ||[M:4/4] x2 [B,B]2 z2 [B,B]2 | z2 [B,F]2 z2 [B,G]2 | %61
 x2[K:treble] x2[K:bass] x2[K:treble] x2 |[K:bass] x2[K:treble] x2[K:bass] x2[K:treble] x2 | %63
[K:bass] x2[K:treble] x2[K:bass] x2[K:treble] x2 |[K:bass] x2 z2 F,,2 B,,D, | x8 | x5 [EG]z[CE] | %67
 B,2 F,2 B,2 A,2 | G,4 x C,2 [C,D,] |[B,,E,] !>!B,,!>!D,!>!E,!>!F, x (3!>!C!>!B,!>!A, | %70
 x2 [F,B,-F]4 !>![E,,E,]2 !>![D,,D,]2 | !fermata![D,G,D]4 x4 |] %72
V:6
 x8 | x8 | x8 | x8 | x8 | x8 | x8 | x8 | x8 | x8 | x8 | x8 || x8 | x5 EB,E | x8 | x8 | x8 | x8 || %18
[M:2/4] x4 ||[M:4/4] x8 | x5 EB,E | x8 | x8 | x8 | x8 | x8 | x8 || !arpeggio!x x3- x x3 | x8 | x8 | %30
 x8 | x8 | x8 | x8 | x8 | x3 [ce]2 [ce]2 x | x8 | x8 | x7"^50" (!tenuto!g || %39
 !tenuto!g)!<(! !tenuto![g_b]2 !tenuto![gb]2!<)!!>(! !tenuto![gb]2 [gb]- |[gb] [g_b]!>)![=fa] x5 | %41
 x8 | x7 (c | c) (!tenuto!_e2 !tenuto![ce]2!>(! !tenuto![ce]2 !tenuto![ce]- | %44
[ce]!>)! [c_e][_Bd]) x5 | x8 | x8 | x8 ||[M:2/4] x3"^54" (g || %49
[M:4/4]g) !tenuto![g_b]2 !tenuto![gb]2 [gb]2 [gb]- |[gb] [g_b]2 x5 | x8 | x7 (c | %53
c) [c_e]2 [ce]2 [ce]2 [ce]- | x8 | x8 | x8 | x8 ||[M:2/4] x4 ||[M:4/4] x8 | x8 | x8 | x8 | x8 | %64
 x8 | x8 | x8 | x3 [ce]2 [ce]2 x | x8 | x8 | x2 x4 !>!E2"^45" !>!D2 | x8 |] %72
V:7
 x8 | x8 | x8 | x8 | x8 | x8 | x8 | x8 | x8 | x8 | x8 | x8 || x8 | x8 | x8 | x8 | x8 | x8 || %18
[M:2/4] x4 ||[M:4/4] x8 | x8 | x8 | x8 | x8 | x8 | x8 | x8 || x x7 | x8 | %29
 x2[K:treble] x2[K:bass] x2[K:treble] x2 |[K:bass] x2[K:treble] x2[K:bass] x2[K:treble] x2 | %31
[K:bass][K:bass] x2[K:treble] x2[K:bass] x2[K:treble] x2 |[K:bass] x8 | x8 | x8 | %35
 x3 [CE]2 [CE]2 [CE]- |[CE] [B,E]2 [B,E]2 x3 | x8 | x8 ||[K:treble] x8 | x2[K:bass] x6 | x8 | %42
 x6[K:treble] x2 | x8 |[K:bass] x8 | x8 | x8 | x8 ||[M:2/4] x4 ||[M:4/4] x4[K:treble] x4 | %50
 x3[K:bass] x5 | x8 | x6[K:treble] x2 | x8 |[K:bass] x8 | x8 | x2 x2 x2 x2 | x8 ||[M:2/4] x4 || %59
[M:4/4] x8 | x8 | x2[K:treble] x2[K:bass] x2[K:treble] x2 | %62
[K:bass] x2[K:treble] x2[K:bass] x2[K:treble] x2 | %63
[K:bass] x2[K:treble] x2[K:bass] x2[K:treble] x2 |[K:bass] x8 | x8 | x8 | x3 [CE]2 [CE]2 [CE]- | %68
 ([CE] [B,E]2) [B,E]2 x3 | x8 | x10 | x8 |] %72

